src/img/icon--moneyback.svg

<svg width="34" height="34" viewBox="0 0 34 34" fill="none" xmlns="http://www.w3.org/2000/svg">
<path fill-rule="evenodd" clip-rule="evenodd" d="M15.3554 12.6349C14.8065 12.6349 14.2484 13.1321 14.2484 13.8685C14.2484 14.426 14.368 14.6271 14.428 14.7035C14.4992 14.7941 14.6416 14.907 15.0223 15.0429L19.7786 16.7021L19.7856 16.7046C20.3429 16.9029 20.9797 17.2142 21.4554 17.8234C21.9416 18.446 22.1395 19.2225 22.1395 20.115C22.1395 22.0564 20.637 23.7205 18.6605 23.7205H15.6874C13.5284 23.7205 11.8605 21.9058 11.8605 19.7671C11.8605 19.112 12.3915 18.581 13.0465 18.581C13.7015 18.581 14.2326 19.112 14.2326 19.7671C14.2326 20.6962 14.9367 21.3485 15.6874 21.3485H18.6605C19.2142 21.3485 19.7674 20.8619 19.7674 20.115C19.7674 19.5683 19.6491 19.3644 19.5858 19.2833C19.5121 19.189 19.3668 19.0737 18.9935 18.9405L14.2373 17.2813L14.2302 17.2789C13.6804 17.0832 13.0406 16.7774 12.5624 16.1685C12.0729 15.5452 11.8763 14.7658 11.8763 13.8685C11.8763 11.948 13.3739 10.2629 15.3554 10.2629H18.3284C20.4874 10.2629 22.1554 12.0776 22.1554 14.2164C22.1554 14.8714 21.6243 15.4024 20.9693 15.4024C20.3143 15.4024 19.7833 14.8714 19.7833 14.2164C19.7833 13.2872 19.0791 12.6349 18.3284 12.6349H15.3554Z" fill="black"/>
<path fill-rule="evenodd" clip-rule="evenodd" d="M17 8.69768C17.655 8.69768 18.186 9.22869 18.186 9.88372V24.1163C18.186 24.7713 17.655 25.3023 17 25.3023C16.345 25.3023 15.814 24.7713 15.814 24.1163V9.88372C15.814 9.22869 16.345 8.69768 17 8.69768Z" fill="black"/>
<path fill-rule="evenodd" clip-rule="evenodd" d="M17 2.37209C8.92573 2.37209 2.37209 8.92573 2.37209 17C2.37209 25.0743 8.92573 31.6279 17 31.6279C25.0743 31.6279 31.6279 25.0743 31.6279 17C31.6279 16.345 32.1589 15.814 32.814 15.814C33.469 15.814 34 16.345 34 17C34 26.3843 26.3843 34 17 34C7.61566 34 0 26.3843 0 17C0 7.61566 7.61566 0 17 0C17.655 0 18.186 0.531011 18.186 1.18605C18.186 1.84108 17.655 2.37209 17 2.37209Z" fill="black"/>
<path fill-rule="evenodd" clip-rule="evenodd" d="M25.3023 1.18605C25.3023 0.531011 25.8333 0 26.4884 0H32.814C33.469 0 34 0.531011 34 1.18605V7.51163C34 8.16666 33.469 8.69768 32.814 8.69768C32.1589 8.69768 31.6279 8.16666 31.6279 7.51163V2.37209H26.4884C25.8333 2.37209 25.3023 1.84108 25.3023 1.18605Z" fill="black"/>
<path fill-rule="evenodd" clip-rule="evenodd" d="M33.6526 0.347385C34.1158 0.810565 34.1158 1.56153 33.6526 2.02471L25.7456 9.93169C25.2825 10.3949 24.5315 10.3949 24.0683 9.93169C23.6051 9.46851 23.6051 8.71754 24.0683 8.25436L31.9753 0.347385C32.4385 -0.115795 33.1894 -0.115795 33.6526 0.347385Z" fill="black"/>
</svg>

<svg width="34" height="34" fill="none" xmlns="http://www.w3.org/2000/svg"><path fill-rule="evenodd" clip-rule="evenodd" d="M15.355 12.635c-.549 0-1.107.497-1.107 1.233 0 .558.12.76.18.835.071.091.214.204.594.34l4.757 1.66.007.002c.557.198 1.194.51 1.67 1.118.486.623.684 1.4.684 2.292 0 1.941-1.503 3.606-3.48 3.606h-2.973c-2.159 0-3.826-1.815-3.826-3.954a1.186 1.186 0 1 1 2.372 0c0 .93.704 1.582 1.454 1.582h2.973c.554 0 1.107-.487 1.107-1.234 0-.547-.118-.75-.181-.832-.074-.094-.22-.21-.592-.343l-4.757-1.659-.007-.002c-.55-.196-1.19-.502-1.668-1.11-.49-.624-.686-1.403-.686-2.3 0-1.921 1.498-3.606 3.48-3.606h2.972c2.16 0 3.827 1.815 3.827 3.953a1.186 1.186 0 0 1-2.372 0c0-.929-.704-1.581-1.455-1.581h-2.973Z" fill="#000"/><path fill-rule="evenodd" clip-rule="evenodd" d="M17 8.698c.655 0 1.186.53 1.186 1.186v14.232a1.186 1.186 0 0 1-2.372 0V9.884c0-.655.531-1.186 1.186-1.186Z" fill="#000"/><path fill-rule="evenodd" clip-rule="evenodd" d="M17 2.372C8.926 2.372 2.372 8.926 2.372 17S8.926 31.628 17 31.628 31.628 25.074 31.628 17A1.186 1.186 0 0 1 34 17c0 9.384-7.616 17-17 17S0 26.384 0 17 7.616 0 17 0a1.186 1.186 0 0 1 0 2.372ZM25.302 1.186c0-.655.531-1.186 1.186-1.186h6.326C33.469 0 34 .531 34 1.186v6.326a1.186 1.186 0 1 1-2.372 0v-5.14h-5.14a1.186 1.186 0 0 1-1.186-1.186Z" fill="#000"/><path fill-rule="evenodd" clip-rule="evenodd" d="M33.653.347a1.186 1.186 0 0 1 0 1.678l-7.907 7.907a1.186 1.186 0 1 1-1.678-1.678L31.975.347a1.186 1.186 0 0 1 1.678 0Z" fill="#000"/></svg>
